X:1
T:Jesus Arose!
T:Jesus Arose!
T:Howard Snyder, Jr.
T:Luetta Snyder, 1941
T:© 1941 Hope Publishing Company
T:© 1941 Hope Publishing Company
C:Howard Snyder, Jr.
Z:© 1941 Hope Publishing Company
%%score ( 1 2 ) ( 3 4 )
L:1/8
M:4/4
K:Eb
V:1 treble 
V:2 treble 
V:3 bass 
V:4 bass 
V:1
"^Slowly" [EG]4 [EG]3 [E^F] | [EG]6 [_DE]2 | [CA]2 [CA]2 [CE]2 [_CF]2 | [B,G]6 z2 | %4
w: 1.~Forth from God’s|throne, in-|to this world of|woe,|
w: 2.~Three days He|lay with-|in that dark do-|main,|
w: 3.~Tho’ He’s on|high, He’s|com- ing back some|day,|
 [DF]4 [DG]3 [DF] | [CE]6 [EG]2 | [EG]2 [EF]2 [EF]2 [EG]2 | [DF]6 z2 | [EG]4 [EG]3 [E^F] | %9
w: Came God’s own|Son, sal-|va- tion to be-|stow;|Nailed to the|
w: Then with new|life, forth|from the tomb He|came;|Christ has the|
w: Then from this|earth, He’ll|car- ry us a-|way;|E’en tho’ we|
 [EG]6 [_DE]2 | [CA]2 [CA]2 [CE]2 [CF]2 | [=B,G]6 z2 | [CA]4 [DB]2 [FA]2 | [EG]6 [B,E]2 | %14
w: cross in|pain and a- go-|ny,|Laid in the|tomb to|
w: key; oh,|death, where is thy|sting?|Our Lord doth|live! oh,|
w: die, we|know we’ll rise a-|gain,|For Christ a-|rose, our|
 [B,D]2 [B,D]2 [B,C]2 [B,D]2 | [B,E]6 z2 ||"^Refrain" B,4"^Faster" E2 G2 | [EB]6 z2 | %18
w: save both you and|me.|||
w: let your prais- es|ring!|Je- sus a-|rose!|
w: pre- cious souls to|win!|||
 [Ec]3 [Ec] E2 [EF]2 | [EG]6 z2 | E4 G2 B2 | [Ge]6 z2 | [Fd]3 [Fd] [Ec]2 [EF]2 | [DB]6 [DB]2 | %24
w: ||||||
w: Praise His ho- ly|name!|Je- sus a-|rose!|Death He o- ver-|came! An|
w: ||||||
 [EG]2 [EG]2 [EG]3 [DA] | [EB]2 [EB]2 E3 [_DE] | [CA]2 [Ec]2 [Ee]3 [Ec] | [Fd]2 [Ec]2 [DB]3 [AB] | %28
w: ||||
w: an- gel rolled a-|way the stone, My|Lord a- rose to|save His own, And|
w: ||||
 [Ge]2 [Ge]2 [Ge]3 [EB] | [Ec]2 [Ec]2 [EB]2 [Ge]>[Af] | [Geg]4 [GBe]2 [EB]>[Gd] | [Fd]4 [Ge]2 z2 |] %32
w: ||||
w: now He reigns up-|on His throne! Hal- le-|lu- jah! Hal- le-|lu- jah!|
w: ||||
V:2
 x8 | x8 | x8 | x8 | x8 | x8 | x8 | x8 | x8 | x8 | x8 | x8 | x8 | x8 | x8 | x8 || B,4 E2 G2 | x8 | %18
 x4 E2 x2 | x8 | E4 G2 B2 | x8 | x8 | x8 | x8 | x4 E3 x | x8 | x8 | x8 | x8 | x8 | x8 |] %32
V:3
 [E,B,]4 [E,B,]3 [E,=A,] | [E,B,]6 [E,A,]2 | [A,,E,]2 [A,,E,]2 [A,,A,]2 [A,,E,]2 | E,6 z2 | %4
 [B,,A,]4 [B,,B,]3 [B,,A,] | [C,G,]6 [C,B,]2 | [F,=A,]2 [F,A,]2 [F,A,]2 [F,A,]2 | [B,,B,]6 z2 | %8
 [E,B,]4 [E,B,]3 [E,=A,] | [E,B,]6 [E,G,]2 | [A,,E,]2 [A,,E,]2 [A,,A,]2 [A,,F,]2 | [G,,D,]6 z2 | %12
 [F,,F,]4 [B,,F,]2 [D,B,]2 | [E,B,]6 [E,G,]2 | [B,,F,]2 [B,,F,]2 [B,,A,]2 [B,,A,]2 | [E,G,]6 z2 || %16
 B,,4 E,2 G,2 | [E,G,]6 z2 | [A,,A,]3 [A,,A,] [A,,C]2 [A,,_C]2 | [E,B,]6 z2 | E,4 G,2 B,2 | %21
 [C,C]6 z2 | [F,B,]3 [F,B,] [F,=A,]2 [F,A,]2 | [B,,B,]6 [B,,B,]2 | [E,B,]2 [E,B,]2 [E,B,]3 [E,B,] | %25
 [G,B,]2 [E,G,]2 [E,G,]3 [E,G,] | [A,,A,]2 [A,,A,]2 [A,,C]3 [A,,A,] | %27
 [F,,=A,]2 [F,,A,]2 [B,,B,]3 [D,B,] | [E,B,]2 [E,B,]2 [E,B,]3 [G,,B,] | %29
 A,2 A,2 [E,G,]2 [E,B,]>[E,B,] | [B,,E]4 [B,,B,]2 [B,,G,]>[B,,B,] | [B,,B,]4 [E,B,]2 z2 |] %32
V:4
 x8 | x8 | x8 | E,6 x2 | x8 | x8 | x8 | x8 | x8 | x8 | x8 | x8 | x8 | x8 | x8 | x8 || %16
 B,,4 E,2 G,2 | x8 | x8 | x8 | E,4 G,2 B,2 | x8 | x8 | x8 | x8 | x8 | x8 | x8 | x8 | %29
 (A,,B,,) (C,D,) x4 | x8 | x8 |] %32

